F[BALLADE
CUT[Die verkaufte Muellerin
    Es wollt' ein Mueller frueh aufstehn,]
CNR[wollt' in den Wald spazieren gehn,]
REG[Mitteleuropa, Deutschland (BRD) , Hessen, Nassau]
SRC[4, S. 346
    1894 gedruckt in Berlin]
KEY[Q0086a 08  G 4/4]
MEL[-5_  1_.11_2_  -7_-7_-7_
    -5_  1_.11_2_  -7_-7_-7_
    -5_  1_3_321_  4_6_6_
    6_  5_5_544_  4_3_0_ //] >>
FCT[Ballade, Menschenhandel, Rettung, Hinrichtung]
